packages/icon/src/svg/arrow-left.icon.svg

<svg width="24" height="24" viewBox="0 0 24 24" fill="none" xmlns="http://www.w3.org/2000/svg">
<path fill-rule="evenodd" clip-rule="evenodd" d="M11.1364 5.99076C11.3317 6.18602 11.3317 6.5026 11.1364 6.69787L6.83425 11H20.5C20.7761 11 21 11.2239 21 11.5V12.5C21 12.7762 20.7761 13 20.5 13H6.83199L11.1364 17.3045C11.3317 17.4997 11.3317 17.8163 11.1364 18.0116L10.4293 18.7187C10.2341 18.9139 9.91747 18.9139 9.72221 18.7187L3.0047 12.0012L9.72221 5.28365C9.91748 5.08839 10.2341 5.08839 10.4293 5.28365L11.1364 5.99076Z" fill="white"/>
</svg>

<svg aria-label="arrow left icon" viewBox="0 0 24 24"><path fill-rule="evenodd" clip-rule="evenodd" d="M11.136 5.99a.5.5 0 010 .708L6.834 11H20.5a.5.5 0 01.5.5v1a.5.5 0 01-.5.5H6.832l4.304 4.305a.5.5 0 010 .707l-.707.707a.5.5 0 01-.707 0L3.005 12l6.717-6.717a.5.5 0 01.707 0l.707.707z"/></svg>
